X: 1
T:Country Gardens
C:Old English Morris Dance - Yvonne and Freda arranged
M:4/4
L:1/8
Q:1/2=80
K:D
|:"D""@Part A"d2 dc "G"B2 B2|"A"A2 AG "Bm"F2 FG|"D"A2 D2 "G"E2 G2
|"A"F3 E "D"D2 z2:||"D""@Part B"d2 dB "A"cB A2|"D"de dB "A"cB A2
|"D"d2 dc "G"B2 e2|"A"c3 B A2 Bc|"D"d2 dc "G"B2 B2
|"A"A2 AG "Bm"F2 FG|"D"A2 D2 "G"E2 G2|"A"F3 E "D"D2 z2||
